X: 26
T: DA FOREFIT O' DA SHIP
S: Alex Stout, Whiteness Primary
R: reel
B: Haand me doon da fiddle, 1979
Z: 2012 John Chambers <jc:trillian.mit.edu>
M: C
L: 1/8
K: D
|: vkd2","yde dAvF2 | (uAB)AF (ED)EF | (3AAA AF ABde | kf2ed kB2AB :|
|: kd2","y(fd) adfd | kd2","y(fd) eAAf | ka2-a(e f)d(ef) | vd(uBAF) E2AB :|
%%begintext align
Dis is een o' wir favorite t\"uns an we tink it cam frae Unst.  If
du could tink du wis ida fo'castle o' a sailin ship an heard da
sea brakin i'er da boo, du'll be able to play him right.  We hae
pittin accents ida music ta tell dee whaur ta lay on da bow wi a
measur o strength sae dat du can hear whaur da sea stricks da booe.
%%endtext

%%sep 2 1 500
%%sep 1 1 500

